X: 3227
T: MY WIFE'S A WANTON WEE THING
%R: jig
B: James Kerr "Merry Melodies" v.3 p.26 #227
Z: 2016 John Chambers <jc:trillian.mit.edu>
N: The G (sharp) in the 2nd strain's 3rd bar should probably be G natural.
M: 6/8
L: 1/8
K: A
(3(e/f/g/) |\
a2e gfe | a3 e2f | =gag dBd | =g3 e2^g |\
a2e gfe | a3 e2d | cAc BGB | A3- A2 ::\
(c/d/) |\
efe cAc | e3 =g3 |\
[1 ded BGB | d3 =g3 :|\
[2 cAc BGB | A3- A2 |]

%%sep 1 1 500
%%sep 1 1 500

